X:1
T:20 Mélodies
T:Hymne à Vénus
T:Holmès, Augusta
T:20 Mélodies
T:10. Hymne à Vénus
T:(Holmès)
T:OpenScore (CC0)
T:OpenScore (CC0)
T:OpenScore (CC0)
T:OpenScore (CC0)
T:OpenScore (CC0)
T:OpenScore (CC0)
T:OpenScore (CC0)
T:OpenScore (CC0)
C:Holmès, Augusta
Z:Holmès, Augusta
Z:OpenScore (CC0)
%%score 1 { ( 2 3 ) | ( 4 5 ) }
L:1/8
Q:3/8=44
M:6/8
K:E
V:1 treble nm="Chant\nVoice"
V:2 treble nm="Piano"
V:3 treble 
V:4 bass 
V:5 bass 
V:1
"^Andante con moto" z6 | z6 |!p! G3 G3 | B3- B2 B | c3 B2 A | B3 G2 z | B3 c3 | G3- G2 B | G3 F3 | %9
w: ||Ô Vé-|\- nus, _ si|blanche et si|blon- de,|Je sou-|\- pire _ à|tes pieds|
 E3- E2!mp! z |!f! G3 G3 | c3- c2 c |!<(! d3 c2!<)! d |!>(! g3 f3!>)! |!p! e3 d2 c | %15
w: nus! _|Lys du|ciel, _ é-|cu- me de|l'on- de,|Rose in- ef-|
 (^B3 !breath!d3) | ^B3- B2 ^A | G3- G2 z | %18
w: \- fa- ble,|ô _ Vé-|nus! _|
!p![Q:3/8=46]"^un  poco  animato  e  cresc." !tenuto!A3[Q:3/8=48] !tenuto!A3 | %19
w: Tes ac-|
[Q:3/8=49] !breath!!tenuto!G3 (EG) B |[Q:3/8=50] !tenuto!c3 !tenuto!c3 | %21
w: \- cents ont * brû-|lé ma|
 !tenuto!^B3 (GB) !breath!d |[Q:3/8=51] !tenuto!e3 !tenuto!e3 | %23
w: vi- * * e|D'une ar-|
 !tenuto!d3 !tenuto!B !tenuto!d !tenuto!f |!f! (^g6 | ^^f3-) f2 z | %26
w: \- deur in- as- sou-|vi-|e! _|
"^a Tempo"[Q:3/8=44]"^diminuendo" ^f3 d2 c | B3 (GB) e | d3 ^B2 A | G3!<(! (EG) c!<)! | e3 d2 c | %31
w: Et de tes|yeux, Pleins * d'a-|zur ra- di-|eux, J'ai * su-|\- bi la lan-|
 B3 (GB) c | F6 | G3- G2 z |!mf!"^appassionato"!<(! (!^!A3 (2:3:2B)!<)! d | %35
w: gueur lu- * mi-|neu-|se! _|Ô _ Vé-|
!>(! (c3 B2)!>)! z/!f! G/ |!<(! (2:3:2AB (2:3:2c!<)! d | (f3 e3) |!mf! e3 d2 c | B3 G!>(! B c | %40
w: nus! _ di-|vi- ne a- mou-|reu- se!|Ou- vre tes|bras, ô Bien- heu-|
 F6 | G3-!>)! G2 z |"^molto appassionato"!f!!<(! (A3 (2:3:2B)!<)! !tenuto!d | %43
w: reu-|se! _|Ô _ Vé-|
!>(! (!tenuto!c3 B2)!>)!!mf! z/!f! G/ |"^crescendo" (2:3:2(AB) (2:3:2!^!c !^!g | (!^!f3 !^!e3) | %46
w: nus! _ di-|vi- * ne‿a- mou-|reu- se!|
!f!!<(! e3 d2 c!<)! |!ff![Q:3/8=42]"^allargando" !breath!g3[Q:3/8=40] (e B) c | %48
w: Ou- vre tes|bras, ô Bien- heu-|
[Q:3/8=38]!>(! (F6!>)! |"^a Tempo"[Q:3/8=44] E3-) E2 z | z6 | z6 | z6 | z6 | z6 | %55
w: reu-|se! _||||||
 z6[Q:3/8=41][Q:3/8=39][Q:3/8=38][Q:3/8=37]"^\n" |[Q:3/8=36] z6 | z6 ||[Q:3/8=44] z6 | z6 | %60
w: |||||
!p! G3 G3 | B3- B2 B | c3 B2 A | B3 G2 z | B3 c3 | G3- G2 B | G3 F3 | E3- E2 z |!f! G3 G3 | %69
w: Ta dou-|ceur _ fé-|\- con- de la|ter- re,|Ta splen-|deur _ ra-|\-vit les|cieux! _|Ta beau-|
 c3- c2 c |!<(! d3 c2!<)! d |!>(! g3 f3!>)! |!p! e3 (d2 c) | !breath!^B3 d3 | ^B3- B2 ^A | %75
w: té _ m'en-|\- ivre et m'al-|tè- re,|Comme un _|fruit dé-|\-li- * ci-|
 G3- G2 z |!p![Q:3/8=46]"^un  poco  animato  e  crescendo" !tenuto!A3 !tenuto!A3 | %77
w: eux! _|Dans l'ex-|
 !breath!!tenuto!G3 (EG) B | !tenuto!c3 !tenuto!c3 | ^B3 (GB) !breath!d | !tenuto!e3 !tenuto!e3 | %81
w: il, où _ gé-|\- mit mon|â- * * me,|Tout mon|
 !tenuto!d3 !breath!!tenuto!B !tenuto!d !tenuto!f |!f! (g6 | ^^f3-) f2 z | %84
w: ê- tre te ré-|\- cla-|me! _|
"^a Tempo"[Q:3/8=44]"^diminuendo" ^f3 d2 c | B3 (GB) e | d3 ^B2 A | G3!<(! (EG) c!<)! | e3 d2 c | %89
w: Pour te sai-|sir, Ten- * dre|fleur du dé-|sir, Je _ con-|sens à la|
 B3 (GB) c | (F6 | G3-) G2 z |!mf!"^appassionato"!<(! (A3 (2:3:2B) d!<)! | %93
w: mort té- * né-|\- breu-|se! _|Ô _ Vé-|
!>(! (c3 B2)!>)!!mp! z/!f!!<(! G/ | (2:3:2AB (2:3:2c d!<)! |!f! f3 e3 |!mf! e3 d2 c | %97
w: \- nus! _ Di-|vi- ne a- mou-|reu- se!|Don- ne- moi|
 B3!>(! G B c | F6 | G3-!>)!!p! G2 z |!f!"^molto appassionato"!<(! (A3 (2:3:2B) !tenuto!d!<)! | %101
w: l'heu- re bien- heu-|reu-|\- se! _|Ô _ Vé-|
!>(! (!tenuto!c3 B2)!>)!!mf! z/!f! G/ |"^crescendo" (2:3:2(AB) (2:3:2!^!c !^!g | !^!f3 !^!e3 | %104
w: nus! _ Di-|\- vi- ne a- mou-|reu- se!|
!f!!<(! e3 d2 c!<)! |!ff![Q:3/8=42]"^allargando" (g3[Q:3/8=40] !breath!e) B c | %106
w: Don- ne- moi|l'heu- re bien- heu-|
[Q:3/8=39]!>(! (F6!>)![Q:3/8=38] |"^a Tempo"[Q:3/8=44] E3-) E2 z | z6 | z6 | z6 | z6 | z6 | %113
w: \- reu-|se! _||||||
[Q:3/8=42] z6[Q:3/8=40][Q:3/8=39][Q:3/8=38] |[Q:3/8=37] z6[Q:3/8=36][Q:3/8=34][Q:3/8=30] | z6 |] %116
w: |||
V:2
!p!!<(! z2 z!<)!!>(! B3!>)! |!<(! z2 z!<)!!>(! B3-!>)! |!p! B3 B3 | B6 | (c3 B3) | (B3 B2) z | %6
 (B3 c3 | e3-) e2 (B | c3 d3 | e3-) e2 z |!pp! (G3 G3 |"_crescendo" c6) | (c6 |!mf! ^B6) | %14
!p! (c3 d2 e | d3 ^B3 | ^e3 ^^f3 | g3 d3) |!p! c3 B2 f | e3 B3 | (^e3 d2 ^a | g3 d3) | (g3 f2 c' | %23
 b3 f3) |!f! (=c'3 _b2 =f' | _e'3!>(! _b3)!>)! |"^a Tempo"!p! (a6 | g6) | (f6 | e6) |!f! (^A6 | %31
!>(! B3 G3)!>)! |!p! (e3 d3 |!>(! e3 B3)!>)! |!p! !^!A3 (2:3:2!^!B!^!d |"_crescendo" !^!c3 !^!B3 | %36
 (2:3:2(!^!A!^!B (2:3:2!^!c!^!d |!f! !^!f3 !^!e3) |!p! ([^A,^A]6 | [B,B]3 [Ee]3) |!p! (e3 d3 | %41
 e3 B3) |!mf!"_crescendo" (!^!A3 (2:3:2!^!B!^!d | (!^!c3 !^!B3)) | (2:3:2!^!A!^!B (2:3:2!^!c!^!g | %45
 !^!f3 !^!e3 |!f! !^![^A^a]6 |!ff! !^![Bb]6 | !^![Aa]6 |"^a Tempo"!p! (g2 e B2 G | %50
!f!"_appassionato" [A,A]3 [B,B]2 [Dd] | [Cc]3 [B,B]2 [G,G]) | %52
!mp!"_cresc.  molto" !^![A,A]/F/D/!^![B,B]/A/D/ !^![Cc]/A/F/!^![Gg]/d/A/ | %53
!f!!>(! !^![Ff]3 !^![Ee]3!>)! | !^![Ee]3 !^![=D=d]2 !^!=c | %55
"_allarg. molto" !^![Bb]2 !^![Gg] !^![Ee]!^![B,B]!^![Cc] |"^allarg." [F,F]6 | %57
!p! [E,G,E]3- [E,G,E]2 z ||!p!!<(! z2 z!<)!!>(! !tenuto!B3!>)! |!<(! z2 z!<)!!>(! B3-!>)! | %60
!p! B3 B3 | B6 |!>(! (c3 B3)!>)! | B3- B2 z | (B3 c3 | e3-) e2 (B | c3 d3 | e3-) e2 z | %68
!pp! (G3 G3 |"_crescendo" c6) | (c6 |!f! ^B6) |!p! (c3 d2 e | d3 ^B3 |!pp! ^e3 ^^f3 | g3 d3) | %76
!p! (c3 B2 f | e3 B3) | (^e3 d2 ^a | g3 d3) | (g3 f2 c' | b3 f3) |!f! (=c'3 _b2 =f' | %83
 _e'3!>(! _b3)!>)! |"^a Tempo"!p!"_diminuendo" (a6 | g6) | (f6 | e6) |!f! (^A6 |!>(! B3 G3)!>)! | %90
!p! (e3 d3 | e3 B3) |!p!"_ma appassionato" (!^!A3 (2:3:2!^!B!^!d |"_crescendo" !^!c3 !^!B3) | %94
 (2:3:2(!^!A!^!B (2:3:2!^!c!^!d |!f! !^!f3 !^!e3) |!p! ([^A,^A]6 | [B,B]3 [Ee]3) |!p! (e3 d3 | %99
 e3 B3) |!mf!"_crescendo" (!^!A3 (2:3:2!^!B!^!d | !^!c3 !^!B3) | (2:3:2!^!A!^!B (2:3:2!^!c!^!g | %103
 !^!f3 !^!e3 |!f! !^![^A^a]6 |!ff! !^![Bb]6 |"_dim." [Aa]6 |"^a Tempo"!p! (g2 e B2 G | %108
!f!"_appassionato" [A,A]3 [B,B]2 [Dd] |!>(! [Cc]3!mf! [B,B]2 [G,G])!>)! | %110
"_molto"!mp!"_cresc." !^![A,A]/F/D/!^![B,B]/A/D/ !^![Cc]/A/F/!^![Gg]/d/A/ | %111
!f!!>(! !^![Ff]3!mf! !^![Ee]3!>)! |!p! !^![Ee]3 !^![=D=d]2 !^!=c | %113
"_allarg. molto" !^![Bb]2 !^![Gg] !^![Ee]!^![B,B]!^![Cc] |"^allarg." [F,F]6 | %115
!p! [E,G,E]3- [E,G,E]2 !fermata!z |] %116
V:3
 G/E/G/E/G/E/ G/E/G/E/G/E/ | G/E/G/E/G/E/ G/E/G/E/G/E/ | G/E/G/E/G/E/ G/E/G/E/G/E/ | %3
 G/E/!<(!G/E/G/E/ G/E/G/E/G/E/!<)! | [FA]/!>(!E/[FA]/E/[FA]/E/ [FA]/D/[FA]/D/[FA]/!>)!D/ | %5
 G/E/G/E/G/E/ G/E/G/E/G/E/ | G/E/G/E/G/E/ G/E/G/E/G/E/ | G/E/G/E/G/E/ G/E/G/E/G/E/ | %8
 A/D/A/D/A/D/ A/D/A/D/A/D/ | G/E/G/E/G/E/ G/E/G/E/G/E/ | G/E/G/E/G/E/ G/E/G/E/G/E/ | %11
 G/E/G/E/G/E/ G/E/G/E/G/E/ | ^^F/D/F/D/F/D/ F/D/F/D/F/D/ | G/D/G/D/G/D/ G/D/G/D/G/D/ | %14
 G/E/G/E/G/E/ G/E/G/E/G/E/ | G/D/G/D/G/D/ G/D/G/D/G/D/ | c/^^F/c/F/c/F/ c/F/c/F/c/F/ | %17
 ^B/G/B/G/B/G/ B/G/B/G/B/G/ | (A/D/"_un  poco  animato  e  cresc."A/D/A/D/ A/D/A/D/A/D/ | %19
 G/E/G/E/G/E/ G/)E/G/E/G/E/ | c/^^F/c/F/c/F/ c/F/c/F/c/^A/ | ^B/G/B/G/B/G/ B/G/B/G/B/G/ | %22
 e/^A/e/A/e/A/ e/A/e/A/e/c/ | d/B/d/B/d/B/ d/B/d/B/d/B/ | _a/=d/a/d/a/d/ a/d/a/d/a/=f/ | %25
 =g/_e/g/e/g/e/ e/_B/e/B/e/B/ | d/"_diminuendo"A/d/A/d/A/ d/A/d/A/d/A/ | %27
 e/G/e/G/e/G/ e/G/e/G/e/G/ | d/F/d/F/d/F/ d/F/d/F/d/F/ | c/E/c/E/c/E/ c/E/c/E/c/E/ | %30
 E/^A,/E/A,/E/A,/ E/A,/E/A,/E/A,/ | E/B,/E/B,/E/B,/ E/B,/E/B,/E/B,/ | A/E/A/E/A/E/ A/D/A/D/A/D/ | %33
 G/E/G/E/G/E/ G/E/G/E/G/E/ | A/F/D/A/F/D/ B/A/D/d/A/D/ | c/G/E/G/E/G/ B/G/E/G/E/G/ | %36
 A/F/D/B/A/D/ c/A/D/d/A/D/ | f/c/G/c/G/c/ e/c/G/c/G/c/ | z/ E/^A,/E/A,/E/ A,/E/A,/E/A,/E/ | %39
 z/!<(! [EG]/B,/[EG]/B,/[EG]/!<)! z/ [GB]/E/[GB]/E/[GB]/ | A/E/A/E/A/E/ A/D/A/D/A/D/ | %41
 G/E/G/E/G/E/ G/E/G/E/G/E/ | A/F/D/A/F/D/ B/A/D/d/A/D/ | c/G/E/G/E/G/ B/G/E/G/E/G/ | %44
 A/F/D/B/A/D/ c/A/D/g/d/A/ | f/c/G/c/G/c/ e/c/G/c/G/c/ | z/ e/^A/e/A/e/ A/e/A/e/A/e/ | %47
 z/"_allargando" [eg]/B/[eg]/B/[eg]/ B/[eg]/B/[eg]/B/[eg]/ | z/ e/A/e/A/e/ A/d/A/d/A/d/ | %49
 G/"_cresc."[Be]/G/[Be]/E/[GB]/ B,/[EG]/B,/[EG]/G,/[B,E]/ | %50
 A,/[DF]/A,/[DF]/A,/[DF]/ B,/[DA]/B,/[DA]/D/[FA]/ | %51
 C/!>(![EG]/C/[EG]/C/[EG]/ B,/[EG]/B,/[EG]/G,/[B,E]/!>)! | x6 | z/ c/G/c/G/c/ z/ c/G/c/G/c/ | %54
 z/"_molto""_cresc." _B/E/B/E/B/ z/ [EB]/=D/[EB]/=C/[FA]/ | %55
 z/ [eg]/B/[eg]/ z/ [Be]/ z/ [GB]/ z/ [EG]/ z/ [EG]/ | %56
 z/"_dimin." [A,C]/F,/[A,C]/F,/[A,C]/ F,/[A,D]/F,/[A,D]/F,/[A,D]/ | x6 || %58
 G/E/G/E/G/E/ G/E/G/E/G/E/ | G/E/G/E/G/E/ G/E/G/E/G/E/ | G/E/G/E/G/E/ G/E/G/E/G/E/ | %61
 G/!<(!E/G/E/G/E/ G/E/G/E/G/E/!<)! | [FA]/E/[FA]/E/[FA]/E/ [FA]/D/[FA]/D/[FA]/D/ | %63
 G/E/G/E/G/E/ G/E/G/E/G/E/ | G/E/G/E/G/E/ G/E/G/E/G/E/ | G/E/G/E/G/E/ G/E/G/E/G/E/ | %66
 A/D/A/D/A/D/ A/D/A/D/A/D/ | G/E/G/E/G/E/ G/E/G/E/G/E/ | G/E/G/E/G/E/ G/E/G/E/G/E/ | %69
 G/E/G/E/G/E/ G/E/G/E/G/E/ | ^^F/D/F/D/F/D/ F/D/F/D/F/D/ | G/D/G/D/G/D/ G/D/G/D/G/D/ | %72
 G/E/G/E/G/E/ G/E/G/E/G/E/ | G/D/G/D/G/D/ G/D/G/D/G/D/ | c/^^F/c/F/c/F/ c/F/c/F/c/F/ | %75
 ^B/G/B/G/B/G/ B/G/B/G/B/G/ | A/"_un  poco  animato  e  cresc."D/A/D/A/D/ A/D/A/D/A/D/ | %77
 G/E/G/E/G/E/ G/E/G/E/G/E/ | c/^^F/c/F/c/F/ c/F/c/F/c/^A/ | ^B/G/B/G/B/G/ B/G/B/G/B/G/ | %80
 e/^A/e/A/e/A/ e/A/e/A/e/c/ | d/B/d/B/d/B/ d/B/d/B/d/B/ | _a/=d/a/d/a/d/ a/d/a/d/a/=f/ | %83
 =g/_e/g/e/g/e/ e/_B/e/B/e/B/ | d/A/d/A/d/A/ d/A/d/A/d/A/ | e/G/e/G/e/G/ e/G/e/G/e/G/ | %86
 d/F/d/F/d/F/ d/F/d/F/d/F/ | c/E/c/E/c/E/ c/E/c/E/c/E/ | E/^A,/E/A,/E/A,/ E/A,/E/A,/E/A,/ | %89
 E/B,/E/B,/E/B,/ E/B,/E/B,/E/B,/ | A/E/A/E/A/E/ A/D/A/D/A/D/ | G/!>(!E/G/E/G/E/ G/E/G/E/G/E/!>)! | %92
 A/F/D/A/F/D/ B/A/D/d/A/D/ | c/G/E/G/E/G/ B/G/E/G/E/G/ | A/F/D/B/A/D/ c/A/D/d/A/D/ | %95
 f/c/G/c/G/c/ e/c/G/c/G/c/ | z/ E/^A,/E/A,/E/ A,/E/A,/E/A,/E/ | %97
 z/!<(! [EG]/B,/[EG]/B,/[EG]/!<)! z/ [GB]/E/[GB]/E/[GB]/ | A/E/A/E/A/E/ A/D/A/D/A/D/ | %99
 G/E/G/E/G/E/ G/E/G/E/G/E/ | A/F/D/A/F/D/ B/A/D/d/A/D/ | c/G/E/G/E/G/ B/G/E/G/E/G/ | %102
 A/F/"_crescendo"D/B/A/D/ c/A/D/g/d/A/ | f/c/G/c/G/c/ e/c/G/c/G/c/ | z/ e/^A/e/A/e/ A/e/A/e/A/e/ | %105
 z/"_allargando" [eg]/B/[eg]/B/[eg]/ B/[eg]/B/[eg]/B/[eg]/ | A/e/A/e/A/e/ A/d/A/d/A/d/ | %107
 G/"_cresc."[Be]/G/[Be]/E/[GB]/ B,/[EG]/B,/[EG]/G,/[B,E]/ | %108
 A,/[DF]/A,/[DF]/A,/[DF]/ B,/[DA]/B,/[DA]/D/[FA]/ | %109
 C/[EG]/C/[EG]/C/[EG]/ B,/[EG]/B,/[EG]/G,/[B,E]/ | x6 | z/ c/G/c/G/c/ z/ c/G/!mp!c/G/c/ | %112
 z/"_cresc. molto" _B/E/B/E/B/ z/ [EB]/=D/[EB]/=C/[EB]/ | %113
 z/ [eg]/B/[eg]/ z/ [Be]/ z/ [GB]/ z/ [EG]/ z/ [EG]/ | %114
 z/"_dimin." [A,C]/F,/[A,C]/F,/[A,C]/ F,/[A,D]/F,/[A,D]/F,/[A,D]/ | x6 |] %116
V:4
 z (B,,E, G, B,,2) | z (B,,E, G, B,,2) | z (B,,E, G, B,,2) | z (B,,E, G, B,,2) | %4
 z (B,,F, B, B,,2) | z (B,,E, G, B,,2) | z (B,,E, G, B,,2) | z (B,,E, G, B,,2) | %8
 z (B,,F, B, B,,2) | z (B,,E, G, B,,2) | z (B,,E, G, B,,2) | z (C,E, G, C,2) | z (D,^^F, ^A, D,2) | %13
 z (D,G, ^B, D,2) | z (E,G, ^A, C,2) | z (D,G, ^B, D,2) | z (D,^A, D D,2) | z (D,G, ^B, D,2) | %18
 z (B,,F, B, B,,2) | z (B,,E, G, B,,2) | z (D,^A, D D,2) | z (D,G, ^B, D,2) | z (F,C F F,2) | %23
 z (F,B, D F,2) | z (_B,=F _B B,2) | z (_B,_E =G B,2) | z (F,B, D F,2) | z (G,B, E G,2) | %28
 z (D,G, ^B, D,2) | z (E,G, C E,2) | z (C,E, F, C,2) | z (B,,E, G, B,,2) | z (B,,F, B, B,,2) | %33
 z (B,,E, G, B,,2) | z (B,,F, B, B,,2) | z (B,,E, G, B,,2) | z (B,,F, B, B,,2) | z (C,E, G, C,2) | %38
 z (C,E, F, C,2) | z (B,,E, G, B,,2) | z (B,,F, B, B,,2) | z (B,,E, G, B,,2) | z (B,,F, B, B,,2) | %43
 z (B,,E, G, B,,2) |!f! z (B,,F, B, B,,2) | z (C,E, G, C,2) |!ped! z (F,C E F,2)!ped-up! | %47
!ped! z (B,E G B,2)!ped-up! |!ped!"^dim." z (F,B, D F,2)!ped-up! | z (B,,E, G, B,,2) | %50
!p!!<(!!ped! !///-!B,,,,3/2 B,,,3/2 !///-!B,,,,3/2!ff! B,,,3/2!<)!!ped-up! | %51
!ped! z (B,,E, G, B,,2)!ped-up! | %52
!p!!<(!!ped! !///-!B,,,,3/2 B,,,3/2 !///-!B,,,,3/2 B,,,3/2!<)!!ped-up! |!ff! z (C,E, G, C,2) | %54
"_cresc."!ped!!<(! !///-!=C,,,3/2 =C,,3/2 !///-!C,,,3/2 C,,3/2!ped-up!!<)! |!ff! z (B,,E, G, B,2) | %56
!p!!ped! !///-!B,,,,3 B,,,3!ped-up! | [E,,,B,,,]3- [E,,,B,,,]2 z || z (B,,E, G, B,,2) | %59
 z (B,,E, G, B,,2) | z (B,,E, G, B,,2) | z (B,,E, G, B,,2) | z (B,,F, B, B,,2) | %63
 z (B,,E, G, B,,2) | z (B,,E, G, B,,2) | z (B,,E, G, B,,2) | z (B,,F, B, B,,2) | %67
 z (B,,E, G, B,,2) | z (B,,E, G, B,,2) | z (C,E, G, C,2) | z (D,^^F, ^A, D,2) | %71
 z!>(! (D,G, ^B, D,2)!>)! | z (E,G, ^A, C,2) | z (D,G, ^B, D,2) | z (D,^A, D D,2) | %75
 z (D,G, ^B, D,2) | z (B,,F, B, B,,2) | z (B,,E, G, B,,2) | z (D,^A, D D,2) | z (D,G, ^B, D,2) | %80
 z (F,C F F,2) | z (F,B, D F,2) | z (_B,=F _B B,2) | z (_B,_E =G B,2) | z (F,B, D F,2) | %85
 z (G,B, E G,2) | z (D,G, ^B, D,2) | z (E,G, C E,2) | z (C,E, F, C,2) | z (B,,E, G, B,,2) | %90
 z (B,,F, B, B,,2) | z (B,,E, G, B,,2) | z (B,,F, B, B,,2) | z (B,,E, G, B,,2) | %94
 z (B,,F, B, B,,2) | z (C,E, G, C,2) | z (C,E, F, C,2) | z (B,,E, G, B,,2) | z (B,,F, B, B,,2) | %99
 z (B,,E, G, B,,2) | z (B,,F, B, B,,2) | z (B,,E, G, B,,2) |!f! z (B,,F, B, B,,2) | %103
 z (C,E, G, C,2) |!ped! z (F,C E!ped-up! F,2) |!ped! z (B,E G!ped-up! B,2) | %106
!ped! z (F,B, D!ped-up! F,2) | z (B,,E, G, B,,2) | %108
!p!!<(!!ped! !///-!B,,,,3/2 B,,,3/2 !///-!B,,,,3/2 B,,,3/2!<)!!ped-up! | %109
!ff!!ped! z (B,,E, G,!ped-up! B,,2) | %110
!p!!<(!!ped! !///-!B,,,,3/2 B,,,3/2 !///-!B,,,,3/2 B,,,3/2!<)!!ped-up! |!ff! z (C,E, G, C,2) | %112
!p!!ped!"_cresc." !///-!=C,,,3/2 =C,,3/2 !///-!C,,,3/2 C,,3/2!ped-up! |!ff! z (B,,E, G, B,2) | %114
!p!!ped! !///-!B,,,,3 B,,,3!ped-up! | [E,,,B,,,]3- [E,,,B,,,]2 !fermata!z |] %116
V:5
 E,,3- E,, z z | E,,3- E,, z z | E,,3- E,, z z | E,,3- E,, z z | E,,3- E,, z z | E,,3- E,, z z | %6
 E,,3- E,, z z | B,,,3- B,,, z z | B,,,3- B,,, z z | E,,3- E,, z z | E,,3- E,, z z | %11
 C,,3- C,, z z | ^A,,3- A,, z z | G,,3- G,, z z | C,,3- C,, z z | D,,3- D,, z z | D,,3- D,, z z | %17
 G,,3- G,, z z | B,,,3- B,,, z z | E,,3- E,, z z | D,,3- D,, z z | G,,3- G,, z z | F,,3- F,, z z | %23
 B,,3- B,, z z | _B,,3- B,, z z | _E,,3- E,, z z | B,,,3- B,,, z z | E,,3- E,, z z | %28
 G,,,3- G,,, z z | C,,3- C,, z z | F,,3- F,, z z | G,,3- G,, z z | B,,,3- B,,, z z | %33
 E,,3- E,, z z | B,,,3- B,,, z z | E,,3- E,, z z | B,,,3- B,,, z z | C,,3- C,, z z | %38
 F,,3- F,, z z | G,,3- G,, z z | B,,,3- B,,, z z | E,,3- E,, z z | B,,,3- B,,, z z | %43
 E,,3- E,, z z | B,,,3- B,,, z z | C,,3- C,, z z | [F,,F,]3- [F,,F,] z z | %47
 [B,,,B,,]3- [B,,,B,,] z z | [B,,,B,,]3- [B,,,B,,] z z | [E,,,E,,]3- [E,,,E,,] z z | x6 | %51
 E,,,3- E,,, z z | x6 | [C,,,C,,]3- [C,,,C,,] z z | x6 | [B,,,,B,,,]3- [B,,,,B,,,] z z | x6 | x6 || %58
 E,,3- E,, z z | E,,3- E,, z z | E,,3- E,, z z | E,,3- E,, z z | E,,3- E,, z z | E,,3- E,, z z | %64
 E,,3- E,, z z | B,,,3- B,,, z z | B,,,3- B,,, z z | E,,3- E,, z z | E,,3- E,, z z | %69
 C,,3- C,, z z | ^A,,3- A,, z z | G,,3- G,, z z | C,,3- C,, z z | D,,3- D,, z z | D,,3- D,, z z | %75
 G,,3- G,, z z | B,,,3- B,,, z z | E,,3- E,, z z | D,,3- D,, z z | G,,3- G,, z z | F,,3- F,, z z | %81
 B,,3- B,, z z | _B,,3- B,, z z | _E,,3- E,, z z | B,,,3- B,,, z z | E,,3- E,, z z | %86
 G,,,3- G,,, z z | C,,3- C,, z z | F,,3- F,, z z | G,,3- G,, z z | B,,,3- B,,, z z | %91
 E,,3- E,, z z | B,,,3- B,,, z z | E,,3- E,, z z | B,,,3- B,,, z z | C,,3- C,, z z | %96
 F,,3- F,, z z | G,,3- G,, z z | B,,,3- B,,, z z | E,,3- E,, z z | B,,,3- B,,, z z | %101
 E,,3- E,, z z | B,,,3- B,,, z z | C,,3- C,, z z | [F,,F,]3- [F,,F,] z z | %105
 [B,,,B,,]3- [B,,,B,,] z z | !^![B,,,B,,]3- [B,,,B,,] z z | [E,,,E,,]3- [E,,,E,,] z z | x6 | %109
 E,,,3- E,,, z z | x6 | [C,,,C,,]3- [C,,,C,,] z z | x6 | !^![B,,,,B,,,]3- [B,,,,B,,,] z z | x6 | %115
 x6 |] %116

